src/pos-icons/folder-account.svg

<svg height="24" viewBox="0 0 24 24" width="24" xmlns="http://www.w3.org/2000/svg"><path d="m19 17h-8v-1c0-1.33 2.67-2 4-2s4 .67 4 2m-4-7a2 2 0 0 1 2 2 2 2 0 0 1 -2 2 2 2 0 0 1 -2-2c0-1.11.9-2 2-2m5-3h-8l-2-2h-6c-1.11 0-2 .89-2 2v12a2 2 0 0 0 2 2h16a2 2 0 0 0 2-2v-10c0-1.11-.9-2-2-2z"/></svg>

<?xml version="1.0" encoding="UTF-8"?><!DOCTYPE svg PUBLIC "-//W3C//DTD SVG 1.1//EN" "http://www.w3.org/Graphics/SVG/1.1/DTD/svg11.dtd"><svg xmlns="http://www.w3.org/2000/svg" xmlns:xlink="http://www.w3.org/1999/xlink" version="1.1" id="mdi-folder-account" width="24" height="24" viewBox="0 0 24 24"><path d="M19,17H11V16C11,14.67 13.67,14 15,14C16.33,14 19,14.67 19,16M15,9A2,2 0 0,1 17,11A2,2 0 0,1 15,13A2,2 0 0,1 13,11C13,9.89 13.9,9 15,9M20,6H12L10,4H4C2.89,4 2,4.89 2,6V18A2,2 0 0,0 4,20H20A2,2 0 0,0 22,18V8C22,6.89 21.1,6 20,6Z" /></svg>
